src/images/platforms/oku.svg

<svg width="567" height="544" viewBox="0 0 567 544" fill="none" xmlns="http://www.w3.org/2000/svg">
<path d="M237.34 212.88C223.78 215.04 214.576 227.546 216.785 240.811C218.996 254.077 231.782 263.078 245.346 260.915L237.34 212.88ZM513.091 315.119C513.091 328.558 524.232 339.454 537.973 339.454C551.714 339.454 562.854 328.558 562.854 315.119H513.091ZM45.22 268.21C36.8637 257.542 21.246 255.516 10.3365 263.69C-0.572952 271.86 -2.64281 287.137 5.71315 297.805L45.22 268.21ZM272.085 347.947L282.666 369.974C290.152 366.533 295.402 359.677 296.671 351.68C297.94 343.686 295.063 335.597 288.995 330.097L272.085 347.947ZM261.762 243.415C264.751 230.295 256.3 217.291 242.886 214.371C229.474 211.448 216.178 219.713 213.189 232.829L261.762 243.415ZM516.957 272.304C516.957 394.765 412.981 494.972 283.533 494.972V543.643C439.403 543.643 566.72 422.675 566.72 272.304H516.957ZM283.533 494.972C154.085 494.972 50.1102 394.765 50.1102 272.304H0.346436C0.346436 422.675 127.664 543.643 283.533 543.643V494.972ZM50.1102 272.304C50.1102 149.843 154.085 49.6363 283.533 49.6363V0.965759C127.664 0.965759 0.346436 121.933 0.346436 272.304H50.1102ZM283.533 49.6363C412.981 49.6363 516.957 149.843 516.957 272.304H566.72C566.72 121.933 439.403 0.965759 283.533 0.965759V49.6363ZM245.346 260.915C279.204 255.519 348.895 238.843 412.048 240.973C443.465 242.031 469.205 247.777 486.486 259.111C501.996 269.284 513.091 285.442 513.091 315.119H562.854C562.854 270.592 544.619 238.636 514.201 218.687C485.546 199.895 448.755 193.51 413.762 192.329C344.099 189.981 265.479 208.394 237.34 212.88L245.346 260.915ZM5.71315 297.805C59.7208 366.768 122.877 388.718 176.37 390.781C228.607 392.797 269.848 375.863 282.666 369.974L261.504 325.924C252.052 330.265 219.217 343.728 178.333 342.15C138.699 340.619 89.6796 324.981 45.22 268.21L5.71315 297.805ZM288.995 330.097C275.263 317.653 264.679 305.163 261.653 293.661L213.46 305.79C220.396 332.157 241.013 352.97 255.174 365.797L288.995 330.097ZM261.653 293.661C257.774 278.914 257.572 261.807 261.762 243.415L213.189 232.829C207.522 257.706 207.376 282.665 213.46 305.79L261.653 293.661Z" fill="#F5F6FC"/>
</svg>

<svg xmlns="http://www.w3.org/2000/svg" width="567" height="544" fill="none"><path fill="#F5F6FC" d="M237.34 212.88c-13.56 2.16-22.764 14.666-20.555 27.931 2.211 13.266 14.997 22.267 28.561 20.104zm275.751 102.239c0 13.439 11.141 24.335 24.882 24.335s24.881-10.896 24.881-24.335zM45.22 268.21c-8.356-10.668-23.974-12.694-34.883-4.52-10.91 8.17-12.98 23.447-4.624 34.115zm226.865 79.737 10.581 22.027c7.486-3.441 12.736-10.297 14.005-18.294 1.269-7.994-1.608-16.083-7.676-21.583zm-10.323-104.532c2.989-13.12-5.462-26.124-18.876-29.044-13.412-2.923-26.708 5.342-29.697 18.458zm255.195 28.889c0 122.461-103.976 222.668-233.424 222.668v48.671c155.87 0 283.187-120.968 283.187-271.339zM283.533 494.972c-129.448 0-233.423-100.207-233.423-222.668H.346c0 150.371 127.318 271.339 283.187 271.339zM50.11 272.304c0-122.461 103.975-222.668 233.423-222.668V.966C127.664.966.346 121.933.346 272.304zM283.533 49.636c129.448 0 233.424 100.207 233.424 222.668h49.763C566.72 121.933 439.403.966 283.533.966zm-38.187 211.279c33.858-5.396 103.549-22.072 166.702-19.942 31.417 1.058 57.157 6.804 74.438 18.138 15.51 10.173 26.605 26.331 26.605 56.008h49.763c0-44.527-18.235-76.483-48.653-96.432-28.655-18.792-65.446-25.177-100.439-26.358-69.663-2.348-148.283 16.065-176.422 20.551zM5.713 297.805c54.008 68.963 117.164 90.913 170.657 92.976 52.237 2.016 93.478-14.918 106.296-20.807l-21.162-44.05c-9.452 4.341-42.287 17.804-83.171 16.226-39.634-1.531-88.653-17.169-133.113-73.94zm283.282 32.292c-13.732-12.444-24.316-24.934-27.342-36.436L213.46 305.79c6.936 26.367 27.553 47.18 41.714 60.007zm-27.342-36.436c-3.879-14.747-4.081-31.854.109-50.246l-48.573-10.586c-5.667 24.877-5.813 49.836.271 72.961z"/></svg>
